icons/midnadark/actions/24/remove-link.svg

<?xml version="1.0" encoding="UTF-8" standalone="no"?>
<!-- Created with Inkscape (http://www.inkscape.org/) -->

<svg
   xmlns:dc="http://purl.org/dc/elements/1.1/"
   xmlns:cc="http://creativecommons.org/ns#"
   xmlns:rdf="http://www.w3.org/1999/02/22-rdf-syntax-ns#"
   xmlns:svg="http://www.w3.org/2000/svg"
   xmlns="http://www.w3.org/2000/svg"
   xmlns:sodipodi="http://sodipodi.sourceforge.net/DTD/sodipodi-0.dtd"
   xmlns:inkscape="http://www.inkscape.org/namespaces/inkscape"
   width="22"
   height="22"
   id="svg3760"
   version="1.1"
   inkscape:version="0.91 r13725"
   sodipodi:docname="remove-link.svg">
  <defs
     id="defs3762" />
  <sodipodi:namedview
     id="base"
     pagecolor="#ffffff"
     bordercolor="#666666"
     borderopacity="1.0"
     inkscape:pageopacity="0.0"
     inkscape:pageshadow="2"
     inkscape:zoom="11.989653"
     inkscape:cx="-0.35732803"
     inkscape:cy="7.5744336"
     inkscape:document-units="px"
     inkscape:current-layer="layer1"
     showgrid="true"
     fit-margin-top="0"
     fit-margin-left="0"
     fit-margin-right="0"
     fit-margin-bottom="0"
     inkscape:window-width="1366"
     inkscape:window-height="633"
     inkscape:window-x="0"
     inkscape:window-y="33"
     inkscape:window-maximized="1"
     inkscape:showpageshadow="false">
    <sodipodi:guide
       position="4.1796875e-06,21.999997"
       orientation="22,0"
       id="guide4116" />
    <sodipodi:guide
       position="4.1796875e-06,-2.6953124e-06"
       orientation="0,22"
       id="guide4118" />
    <sodipodi:guide
       position="22.000004,-2.6953124e-06"
       orientation="-22,0"
       id="guide4120" />
    <sodipodi:guide
       position="22.000004,21.999997"
       orientation="0,-22"
       id="guide4122" />
    <sodipodi:guide
       position="2.0000042,19.999997"
       orientation="18,0"
       id="guide4124" />
    <sodipodi:guide
       position="20.000004,1.9999973"
       orientation="-18,0"
       id="guide4128" />
    <sodipodi:guide
       position="20.000004,19.999997"
       orientation="0,-18"
       id="guide4130" />
    <sodipodi:guide
       position="3.0000042,18.999997"
       orientation="16,0"
       id="guide4132" />
    <sodipodi:guide
       position="3.0000042,2.9999973"
       orientation="0,16"
       id="guide4134" />
    <sodipodi:guide
       position="19.000004,2.9999973"
       orientation="-16,0"
       id="guide4136" />
    <sodipodi:guide
       position="19.000004,18.999997"
       orientation="0,-16"
       id="guide4138" />
    <inkscape:grid
       type="xygrid"
       id="grid4140" />
  </sodipodi:namedview>
  <metadata
     id="metadata3765">
    <rdf:RDF>
      <cc:Work
         rdf:about="">
        <dc:format>image/svg+xml</dc:format>
        <dc:type
           rdf:resource="http://purl.org/dc/dcmitype/StillImage" />
        <dc:title />
      </cc:Work>
    </rdf:RDF>
  </metadata>
  <g
     inkscape:label="Capa 1"
     inkscape:groupmode="layer"
     id="layer1"
     transform="translate(-553.72253,-583.11926)">
    <path
       style="opacity:1;fill:#ffffff;fill-opacity:1;stroke:none"
       d="M 6 3 L 6 5 L 3 5 L 3 6 L 6 6 L 6 8 L 10 8 L 10 7 L 7 7 L 7 4 L 10 4 L 10 3 L 6 3 z M 12 3 L 12 4 L 15 4 L 15 7 L 12 7 L 12 8 L 16 8 L 16 6 L 19 6 L 19 5 L 16 5 L 16 3 L 12 3 z M 10 5 L 10 6 L 12 6 L 12 5 L 10 5 z "
       transform="translate(553.72253,583.11926)"
       id="rect4112" />
    <path
       inkscape:connector-curvature="0"
       style="opacity:1;fill:#da4453;fill-opacity:1;stroke:none;stroke-width:2;stroke-linecap:round;stroke-miterlimit:4;stroke-dasharray:none;stroke-opacity:1"
       d="m 568.42956,597.15246 -0.70703,0.70703 1.79297,1.79297 -1.79297,1.79297 0.70703,0.70703 1.79297,-1.79297 1.79297,1.79297 0.70703,-0.70703 -1.79297,-1.79297 1.79297,-1.79297 -0.70703,-0.70703 -1.79297,1.79297 -1.79297,-1.79297 z"
       id="rect4151" />
  </g>
</svg>

<svg xmlns="http://www.w3.org/2000/svg" viewBox="0 0 22 22"><g transform="translate(-553.72-583.12)"><path d="m6 3v2h-3v1h3v2h4v-1h-3v-3h3v-1h-4m6 0v1h3v3h-3v1h4v-2h3v-1h-3v-2h-4m-2 2v1h2v-1h-2" transform="translate(553.72 583.12)" fill="#fff"/><path d="m568.43 597.15l-.707.707 1.793 1.793-1.793 1.793.707.707 1.793-1.793 1.793 1.793.707-.707-1.793-1.793 1.793-1.793-.707-.707-1.793 1.793-1.793-1.793" fill="#da4453"/></g></svg>
